SVG_Azure_Grouped/Deployment/Azure Board.svg

<?xml version="1.0" encoding="UTF-8" standalone="no"?>
<!-- Generated by Microsoft Visio, SVG Export Azure Board.svg Page-1 -->

<svg
   xmlns:dc="http://purl.org/dc/elements/1.1/"
   xmlns:cc="http://creativecommons.org/ns#"
   xmlns:rdf="http://www.w3.org/1999/02/22-rdf-syntax-ns#"
   xmlns:svg="http://www.w3.org/2000/svg"
   xmlns="http://www.w3.org/2000/svg"
   xmlns:sodipodi="http://sodipodi.sourceforge.net/DTD/sodipodi-0.dtd"
   xmlns:inkscape="http://www.inkscape.org/namespaces/inkscape"
   width="0.78746605in"
   height="0.7874369in"
   viewBox="0 0 56.697554 56.695598"
   xml:space="preserve"
   class="st11"
   version="1.1"
   id="svg97"
   sodipodi:docname="Azure Board.svg"
   style="font-size:12px;overflow:visible;color-interpolation-filters:sRGB;fill:none;fill-rule:evenodd;stroke-linecap:square;stroke-miterlimit:3"
   inkscape:version="0.92.5 (2060ec1f9f, 2020-04-08)"><metadata
   id="metadata103"><rdf:RDF><cc:Work
       rdf:about=""><dc:format>image/svg+xml</dc:format><dc:type
         rdf:resource="http://purl.org/dc/dcmitype/StillImage" /></cc:Work></rdf:RDF></metadata><defs
   id="defs101" /><sodipodi:namedview
   pagecolor="#ffffff"
   bordercolor="#666666"
   borderopacity="1"
   objecttolerance="10"
   gridtolerance="10"
   guidetolerance="10"
   inkscape:pageopacity="0"
   inkscape:pageshadow="2"
   inkscape:window-width="640"
   inkscape:window-height="480"
   id="namedview99"
   showgrid="false"
   inkscape:zoom="1.8365233"
   inkscape:cx="37.795184"
   inkscape:cy="18.900351"
   inkscape:window-x="0"
   inkscape:window-y="0"
   inkscape:window-maximized="0"
   inkscape:current-layer="svg97" />
	<style
   type="text/css"
   id="style2">
	<![CDATA[
		.st1 {fill:#00947d;stroke:none;stroke-linecap:butt;stroke-width:0.975404}
		.st2 {fill:#1fc1a7;stroke:none;stroke-linecap:butt;stroke-width:0.975404}
		.st3 {fill:#61ddc9;stroke:none;stroke-linecap:butt;stroke-width:0.975404}
		.st4 {fill:#9bfdec;stroke:none;stroke-linecap:butt;stroke-width:0.975404}
		.st5 {fill:#00b99d;stroke:none;stroke-linecap:butt;stroke-width:0.975404}
		.st6 {fill:#04bca1;stroke:none;stroke-linecap:butt;stroke-width:0.975404}
		.st7 {fill:#1dc0a7;stroke:none;stroke-linecap:butt;stroke-width:0.975404}
		.st8 {fill:#00ba9d;stroke:none;stroke-linecap:butt;stroke-width:0.975404}
		.st9 {fill:#27cfb2;stroke:none;stroke-linecap:butt;stroke-width:0.975404}
		.st10 {fill:#c5fdf4;stroke:none;stroke-linecap:butt;stroke-width:0.975404}
		.st11 {fill:none;fill-rule:evenodd;font-size:12px;overflow:visible;stroke-linecap:square;stroke-miterlimit:3}
	]]>
	</style>

	<g
   id="g95"
   transform="translate(-5.6693772,-5.6687)">
		<title
   id="title4">Page-1</title>
		<g
   id="group17447-1"
   transform="translate(5.66929,-34.0157)">
			<title
   id="title6">Azure Board.17447</title>
			<g
   id="group17448-2">
				<title
   id="title8">Page-1</title>
				<g
   id="group17449-3">
					<title
   id="title10">Azure Board</title>
					<g
   id="group17450-4"
   transform="translate(0,-13.9956)">
						<title
   id="title12">path2</title>
						<g
   id="shape17451-5">
							<title
   id="title14">Sheet.17451</title>
							<path
   d="m 40.18,77.41 c 4.24,0 8.08,1.59 11,4.18 V 56.02 c 0,-1.29 -1.04,-2.34 -2.34,-2.34 H 2.34 C 1.05,53.68 0,54.73 0,56.02 v 38.02 c 0,1.29 1.05,2.34 2.34,2.34 h 21.53 c -0.12,-0.81 -0.18,-1.64 -0.18,-2.49 -0.01,-9.1 7.38,-16.48 16.49,-16.48 z"
   class="st1"
   id="path16"
   inkscape:connector-curvature="0"
   style="fill:#00947d;stroke:none;stroke-width:0.97540402;stroke-linecap:butt" />
						</g>
					</g>
					<g
   id="group17452-7"
   transform="translate(4.21168,-45.2124)">
						<title
   id="title20">path4</title>
						<g
   id="shape17453-8">
							<title
   id="title22">Sheet.17453</title>
							<rect
   x="0"
   y="89.181"
   width="11.3863"
   height="7.19697"
   class="st2"
   id="rect24"
   style="fill:#1fc1a7;stroke:none;stroke-width:0.97540402;stroke-linecap:butt" />
						</g>
					</g>
					<g
   id="group17454-10"
   transform="translate(19.865,-45.2124)">
						<title
   id="title28">path6</title>
						<g
   id="shape17455-11">
							<title
   id="title30">Sheet.17455</title>
							<rect
   x="0"
   y="89.181"
   width="11.3863"
   height="7.19697"
   class="st3"
   id="rect32"
   style="fill:#61ddc9;stroke:none;stroke-width:0.97540402;stroke-linecap:butt" />
						</g>
					</g>
					<g
   id="group17456-13"
   transform="translate(4.21168,-33.8095)">
						<title
   id="title36">path8</title>
						<g
   id="shape17457-14">
							<title
   id="title38">Sheet.17457</title>
							<rect
   x="0"
   y="89.181099"
   width="11.3863"
   height="7.1968699"
   class="st4"
   id="rect40"
   style="fill:#9bfdec;stroke:none;stroke-width:0.97540402;stroke-linecap:butt" />
						</g>
					</g>
					<g
   id="group17458-16"
   transform="translate(4.21168,-22.5111)">
						<title
   id="title44">path10</title>
						<g
   id="shape17459-17">
							<title
   id="title46">Sheet.17459</title>
							<rect
   x="0"
   y="89.286102"
   width="11.3863"
   height="7.0918398"
   class="st5"
   id="rect48"
   style="fill:#00b99d;stroke:none;stroke-width:0.97540402;stroke-linecap:butt" />
						</g>
					</g>
					<g
   id="group17460-19"
   transform="translate(19.865,-33.8095)">
						<title
   id="title52">path12</title>
						<g
   id="shape17461-20">
							<title
   id="title54">Sheet.17461</title>
							<rect
   x="0"
   y="89.181099"
   width="11.3863"
   height="7.1968699"
   class="st6"
   id="rect56"
   style="fill:#04bca1;stroke:none;stroke-width:0.97540402;stroke-linecap:butt" />
						</g>
					</g>
					<g
   id="group17462-22"
   transform="translate(35.5508,-45.2124)">
						<title
   id="title60">path14</title>
						<g
   id="shape17463-23">
							<title
   id="title62">Sheet.17463</title>
							<rect
   x="0"
   y="89.181"
   width="11.3863"
   height="7.19697"
   class="st7"
   id="rect64"
   style="fill:#1dc0a7;stroke:none;stroke-width:0.97540402;stroke-linecap:butt" />
						</g>
					</g>
					<g
   id="group17464-25"
   transform="translate(23.6774,-13.9892)">
						<title
   id="title68">path16</title>
						<g
   id="shape17465-26">
							<title
   id="title70">Sheet.17465</title>
							<path
   d="M 27.5,94.03 V 81.59 C 24.59,79 20.73,77.41 16.51,77.41 7.4,77.41 0,84.78 0,93.89 c 0,0.85 0.06,1.67 0.19,2.49 h 24.97 c 1.3,-0.01 2.34,-1.06 2.34,-2.35 z"
   class="st8"
   id="path72"
   inkscape:connector-curvature="0"
   style="fill:#00ba9d;stroke:none;stroke-width:0.97540402;stroke-linecap:butt" />
						</g>
					</g>
					<g
   id="group17466-28"
   transform="translate(23.8677)">
						<title
   id="title76">path18</title>
						<g
   id="shape17467-29">
							<title
   id="title78">Sheet.17467</title>
							<path
   d="m 27.31,67.61 v 12.44 c 0,1.29 -1.04,2.34 -2.33,2.34 H 0 c 1.2,7.92 8.05,13.99 16.32,13.99 9.12,-0.01 16.51,-7.39 16.51,-16.49 0,-4.88 -2.14,-9.27 -5.52,-12.28 z"
   class="st9"
   id="path80"
   inkscape:connector-curvature="0"
   style="fill:#27cfb2;stroke:none;stroke-width:0.97540402;stroke-linecap:butt" />
						</g>
					</g>
					<g
   id="group17468-31"
   transform="translate(29.8347,-7.72865)">
						<title
   id="title84">path20</title>
						<g
   id="shape17469-32">
							<title
   id="title86">Sheet.17469</title>
							<path
   d="M 18.83,79.51 8.49,89.83 3.17,84.53 0,87.7 5.32,93.01 8.69,96.38 11.87,93.2 22.2,82.88 Z"
   class="st10"
   id="path88"
   inkscape:connector-curvature="0"
   style="fill:#c5fdf4;stroke:none;stroke-width:0.97540402;stroke-linecap:butt" />
						</g>
					</g>
				</g>
			</g>
		</g>
	</g>
</svg>

<?xml version="1.0" encoding="UTF-8" standalone="no"?>
<!DOCTYPE svg PUBLIC "-//W3C//DTD SVG 1.1//EN" "http://www.w3.org/Graphics/SVG/1.1/DTD/svg11.dtd">
<!-- Generated by Microsoft Visio, SVG Export Azure Board.svg Page-1 -->
<svg xmlns="http://www.w3.org/2000/svg" xmlns:xlink="http://www.w3.org/1999/xlink" xmlns:ev="http://www.w3.org/2001/xml-events"
		width="0.944882in" height="1.33858in" viewBox="0 0 68.0315 96.378" xml:space="preserve" color-interpolation-filters="sRGB"
		class="st11">
	<style type="text/css">
	<![CDATA[
		.st1 {fill:#00947d;stroke:none;stroke-linecap:butt;stroke-width:0.975404}
		.st2 {fill:#1fc1a7;stroke:none;stroke-linecap:butt;stroke-width:0.975404}
		.st3 {fill:#61ddc9;stroke:none;stroke-linecap:butt;stroke-width:0.975404}
		.st4 {fill:#9bfdec;stroke:none;stroke-linecap:butt;stroke-width:0.975404}
		.st5 {fill:#00b99d;stroke:none;stroke-linecap:butt;stroke-width:0.975404}
		.st6 {fill:#04bca1;stroke:none;stroke-linecap:butt;stroke-width:0.975404}
		.st7 {fill:#1dc0a7;stroke:none;stroke-linecap:butt;stroke-width:0.975404}
		.st8 {fill:#00ba9d;stroke:none;stroke-linecap:butt;stroke-width:0.975404}
		.st9 {fill:#27cfb2;stroke:none;stroke-linecap:butt;stroke-width:0.975404}
		.st10 {fill:#c5fdf4;stroke:none;stroke-linecap:butt;stroke-width:0.975404}
		.st11 {fill:none;fill-rule:evenodd;font-size:12px;overflow:visible;stroke-linecap:square;stroke-miterlimit:3}
	]]>
	</style>

	<g>
		<title>Page-1</title>
		<g id="group17050-1" transform="translate(5.66929,-34.0157)">
			<title>Azure Board.17050</title>
			<g id="group17051-2">
				<title>Page-1</title>
				<g id="group17052-3">
					<title>Azure Board</title>
					<g id="group17053-4" transform="translate(2.8777E-13,-13.9956)">
						<title>path2</title>
						<g id="shape17054-5">
							<title>Sheet.17054</title>
							<path d="M40.18 77.41 C44.42 77.41 48.26 79 51.18 81.59 L51.18 56.02 C51.18 54.73 50.14 53.68 48.84 53.68
										 L2.34 53.68 C1.05 53.68 0 54.73 0 56.02 L0 94.04 C0 95.33 1.05 96.38 2.34 96.38 L23.87 96.38
										 C23.75 95.57 23.69 94.74 23.69 93.89 C23.68 84.79 31.07 77.41 40.18 77.41 Z" class="st1"/>
						</g>
					</g>
					<g id="group17055-7" transform="translate(4.21168,-45.2124)">
						<title>path4</title>
						<g id="shape17056-8">
							<title>Sheet.17056</title>
							<rect x="0" y="89.181" width="11.3863" height="7.19697" class="st2"/>
						</g>
					</g>
					<g id="group17057-10" transform="translate(19.865,-45.2124)">
						<title>path6</title>
						<g id="shape17058-11">
							<title>Sheet.17058</title>
							<rect x="0" y="89.181" width="11.3863" height="7.19697" class="st3"/>
						</g>
					</g>
					<g id="group17059-13" transform="translate(4.21168,-33.8095)">
						<title>path8</title>
						<g id="shape17060-14">
							<title>Sheet.17060</title>
							<rect x="0" y="89.1811" width="11.3863" height="7.19687" class="st4"/>
						</g>
					</g>
					<g id="group17061-16" transform="translate(4.21168,-22.5111)">
						<title>path10</title>
						<g id="shape17062-17">
							<title>Sheet.17062</title>
							<rect x="0" y="89.2861" width="11.3863" height="7.09184" class="st5"/>
						</g>
					</g>
					<g id="group17063-19" transform="translate(19.865,-33.8095)">
						<title>path12</title>
						<g id="shape17064-20">
							<title>Sheet.17064</title>
							<rect x="0" y="89.1811" width="11.3863" height="7.19687" class="st6"/>
						</g>
					</g>
					<g id="group17065-22" transform="translate(35.5508,-45.2124)">
						<title>path14</title>
						<g id="shape17066-23">
							<title>Sheet.17066</title>
							<rect x="0" y="89.181" width="11.3863" height="7.19697" class="st7"/>
						</g>
					</g>
					<g id="group17067-25" transform="translate(23.6774,-13.9892)">
						<title>path16</title>
						<g id="shape17068-26">
							<title>Sheet.17068</title>
							<path d="M27.5 94.03 L27.5 81.59 C24.59 79 20.73 77.41 16.51 77.41 C7.4 77.41 0 84.78 0 93.89 C0 94.74
										 0.06 95.56 0.19 96.38 L25.16 96.38 C26.46 96.37 27.5 95.32 27.5 94.03 Z" class="st8"/>
						</g>
					</g>
					<g id="group17069-28" transform="translate(23.8677,2.84217E-13)">
						<title>path18</title>
						<g id="shape17070-29">
							<title>Sheet.17070</title>
							<path d="M27.31 67.61 L27.31 80.05 C27.31 81.34 26.27 82.39 24.98 82.39 L0 82.39 C1.2 90.31 8.05 96.38
										 16.32 96.38 C25.44 96.37 32.83 88.99 32.83 79.89 C32.83 75.01 30.69 70.62 27.31 67.61 Z"
									class="st9"/>
						</g>
					</g>
					<g id="group17071-31" transform="translate(29.8347,-7.72865)">
						<title>path20</title>
						<g id="shape17072-32">
							<title>Sheet.17072</title>
							<path d="M18.83 79.51 L8.49 89.83 L3.17 84.53 L0 87.7 L5.32 93.01 L8.69 96.38 L11.87 93.2 L22.2 82.88
										 L18.83 79.51 Z" class="st10"/>
						</g>
					</g>
				</g>
			</g>
		</g>
	</g>
</svg>
